!!!OTL: 1942. Weihnachtslied.
!!!ODT: 1697
!!!ARE: Europa, Mitteleuropa, Deutschland
!!!SCT: E1942
!!!TXL: @@DE
!!!YEM: Copyright 1995, estate of Helmut Schaffrath.
**kern	**text
*ICvox	*
*M6/8	*
*k[b-]	*
*F:	*
=1	=1
!LO:TX:a:t=Straßb. Geſangb. 1697. (Weckerlin I S. 96).	!
{(8ccL	Schlaf
8b-J)	.
8cc	mein
8.a	Kin-
16g	-de-
8f	-lein,
=2	=2
8b-L	ſchlaf
8ccJ	.
8a	mein
8.g	Söh-
16f	-ne-
8f}	-lein,
=3	=3
{8aL	ſingt
8bnJ	.
8cc	die
8bL	Mut-
8gJ	.
8cc	-ter
=4	=4
4cc	Jung-
8bn	-frau
4.cc}	rein;
=5	=5
{(8ccL	Schlaf
8b-J)	.
8cc	mein
8.a	Her-
16g	-ʒe-
8f	-lein,
=6	=6
8b-L	ſchlaf
8ccJ	.
8a	mein
8.g	Schä-
16f	-tʒe-
8f}	-lein,
=7	=7
{8aL	ſingt
8bnJ	.
8cc	der
8bL	Va-
8gJ	.
8cc	-ter
=8	=8
4cc	e-
8bn	-ben
4.cc}	fein.
=9	=9
!LO:TX:a:t=Refr.	!
{8cc	Sin-
8dd	-get
8ee	und
8ff	klin-
8ff	-get
8cc	dem
=10	=10
8.b-	Kin-
16cc	-de-
16b-L	-lein
16aJ	.
4g}	klein,
{8cc	dem
=11	=11
8fL	ho-
8gJ	.
8a	-nig-
8b-L	-ſü-
8ccJ	.
8a	-ßen
=12	=12
(8.gL	Je-
16fJ)	.
8e	-ſu-
4f	-lein!
8r}	.
=13	=13
{8cc	Sin-
8dd	-get
8ee	und
8ff	klin-
8ff	-get,
8cc	ihr
=14	=14
8.b-	En-
16cc	-ge-
16b-L	-lein
16aJ	.
4g}	rein
{8cc	mit
=15	=15
8fL	tau-
8gJ	.
8a	-ſend
8b-L	ſü-
8ccJ	.
8a	-ßen
=16	=16
(8.gL	Stim-
16fJ)	.
8e	-me-
4f	-lein!
8r}	.
==	==
!!!AGN: geistlich, Fest - Lied, Weihnachten
!!!ONB: ESAC (Essen Associative Code) Database: ERK3
!!!AMT: compound duple
!!!AIN: vox
!!!EED: Helmut Schaffrath
!!!EEV: 1.0
!!!GTL: Geistliche Lieder. 1. Christliche Festlieder: a) Weihnachtskreis (Advent, Weihnachten, Neujahr und Dreikoenigstag).
!!!URL-scan: https://rosdok.uni-rostock.de/mcrviewer/recordIdentifier/rosdok_ppn745177999/iview2/phys_0653.iview2?x=188.9681574111819&y=48.36760040326044&scale=0.7014306698522895&rotation=0&layout=singlePageLayout
!!!ENC: Anna Maria Matuszewska
!!!EEV: 2025/09/01
*-	*-
